icons/core/folder-import.svg

<svg width="32" height="32" viewBox="0 0 32 32" xmlns="http://www.w3.org/2000/svg"><g clip-path="url(#clip0)"><path fill-rule="evenodd" clip-rule="evenodd" d="M4.00049 4.00015C2.89591 4.00015 2.00048 4.89559 2.00049 6.00017L2.00063 26C2.00063 27.1046 2.89606 28 4.00063 28L19.5861 28L22.2931 30.7071L23.7074 29.2929L22.4145 28L28.0006 28L28.0068 28H22.4145L20.4142 25.9998H30.0002V26.0408C30.0003 26.0331 30.0004 26.0254 30.0005 26.0177C30.0005 26.0118 30.0006 26.0059 30.0006 26V25.9998H32.0002V23.9998H30.0006V10.0002C30.0006 8.89561 29.1051 8.00018 28.0006 8.00018H15.4149L12.0007 4.58594C11.6257 4.21087 11.1169 4.00015 10.5865 4.00015H4.00049ZM20.4142 23.9998L23.7074 20.7066L22.2931 19.2924L17.2929 24.2926L16.5858 24.9997L17.2929 25.7069L19.5861 28H13.0002V26H4.00063L4.00049 6.00015H10.5865L14.0007 9.41439C14.3758 9.78947 14.8845 10.0002 15.4149 10.0002H28.0006V19H30.0002V23.9998H20.4142Z"/></g><defs><clipPath id="clip0"><path d="M0 0H32V32H0V0Z"/></clipPath></defs></svg>

<svg viewBox="0 0 32 32" xmlns="http://www.w3.org/2000/svg"><g clip-path="url(#clip0)"><path fill-rule="evenodd" d="M4 4a2 2 0 00-2 2v20a2 2 0 002 2h15.586l2.707 2.707 1.414-1.414L22.414 28h5.593-5.593l-2-2H30V26h2v-2h-2V10a2 2 0 00-2-2H15.416L12 4.586A2 2 0 0010.586 4H4zm16.414 20l3.293-3.293-1.414-1.415-5 5-.707.708.707.707L19.586 28H13v-2H4V6h6.586l3.415 3.414a2 2 0 001.414.586H28v9h2v5h-9.587z"/></g><defs><clipPath id="clip0"><path d="M0 0h32v32H0V0z"/></clipPath></defs></svg>
